icons/op-group-by-24.svg

<svg width="24" height="24" viewBox="0 0 24 24" fill="none" xmlns="http://www.w3.org/2000/svg">
<path d="M6 8.125H17.9707V9.28125H6V8.125ZM6.02927 10.125H18V11.25H6.02927V10.125ZM9.01463 4V7.1875H6.02927L9.01463 4ZM6 16.875H17.9707V18.0312H6V16.875ZM6.02927 18.875H18V20H6.02927V18.875ZM9.01463 12.75V15.9375H6L9.01463 12.75Z" fill="black"/>
</svg>

<svg xmlns="http://www.w3.org/2000/svg" width="24" height="24" viewBox="0 0 24 24"><path d="M6 8.125h11.971v1.156H6V8.125Zm.029 2H18v1.125H6.029v-1.125ZM9.015 4v3.188H6.029L9.015 4ZM6 16.875h11.971v1.156H6v-1.156Zm.029 2H18V20H6.029v-1.125Zm2.986-6.125v3.188H6l3.015-3.188Z"/></svg>
